img/simple-258b6ed5.svg

<svg xmlns="http://www.w3.org/2000/svg" fill="none" viewBox="0 0 538 384"><rect width="122" height="119" fill="#FF3385" rx="20"/><path fill="#F7F7F7" fill-opacity=".2" d="M96 85V32c0-5-3-8-8-8H35c-5 0-8 3-8 8v53c0 5 3 8 8 8h53c5 0 8-3 8-8zM48 64l10 12 13-17 17 23H35l13-18z"/><rect width="122" height="119" fill="#FF3385" rx="20"/><path fill="#F7F7F7" fill-opacity=".2" d="M96 85V32c0-5-3-8-8-8H35c-5 0-8 3-8 8v53c0 5 3 8 8 8h53c5 0 8-3 8-8zM48 64l10 12 13-17 17 23H35l13-18z"/><rect width="122" height="119" x="138" fill="#FF3385" rx="20"/><path fill="#F7F7F7" fill-opacity=".2" d="M234 85V32c0-5-3-8-8-8h-53c-5 0-8 3-8 8v53c0 5 3 8 8 8h53c5 0 8-3 8-8zm-48-21l10 12 13-17 17 23h-53l13-18z"/><rect width="122" height="119" x="138" fill="#FF3385" rx="20"/><path fill="#F7F7F7" fill-opacity=".2" d="M234 85V32c0-5-3-8-8-8h-53c-5 0-8 3-8 8v53c0 5 3 8 8 8h53c5 0 8-3 8-8zm-48-21l10 12 13-17 17 23h-53l13-18z"/><rect width="122" height="119" x="276" fill="#FF3385" rx="20"/><path fill="#F7F7F7" fill-opacity=".2" d="M371 85V32c0-5-3-8-8-8h-53c-5 0-8 3-8 8v53c0 5 3 8 8 8h53c5 0 8-3 8-8zm-48-21l10 12 13-17 17 23h-53l13-18z"/><rect width="122" height="119" x="276" fill="#FF3385" rx="20"/><path fill="#F7F7F7" fill-opacity=".2" d="M371 85V32c0-5-3-8-8-8h-53c-5 0-8 3-8 8v53c0 5 3 8 8 8h53c5 0 8-3 8-8zm-48-21l10 12 13-17 17 23h-53l13-18z"/><rect width="122" height="118" y="133" fill="#FF3385" rx="20"/><path fill="#F7F7F7" fill-opacity=".2" d="M96 218v-53c0-5-3-8-8-8H35c-5 0-8 3-8 8v53c0 5 3 8 8 8h53c5 0 8-3 8-8zm-48-21l10 12 13-17 17 23H35l13-18z"/><rect width="122" height="118" y="133" fill="#FF3385" rx="20"/><path fill="#F7F7F7" fill-opacity=".2" d="M96 218v-53c0-5-3-8-8-8H35c-5 0-8 3-8 8v53c0 5 3 8 8 8h53c5 0 8-3 8-8zm-48-21l10 12 13-17 17 23H35l13-18z"/><rect width="122" height="118" x="138" y="133" fill="#FF3385" rx="20"/><path fill="#F7F7F7" fill-opacity=".2" d="M234 218v-53c0-5-3-8-8-8h-53c-5 0-8 3-8 8v53c0 5 3 8 8 8h53c5 0 8-3 8-8zm-48-21l10 12 13-17 17 23h-53l13-18z"/><rect width="122" height="118" x="138" y="133" fill="#FF3385" rx="20"/><path fill="#F7F7F7" fill-opacity=".2" d="M234 218v-53c0-5-3-8-8-8h-53c-5 0-8 3-8 8v53c0 5 3 8 8 8h53c5 0 8-3 8-8zm-48-21l10 12 13-17 17 23h-53l13-18z"/><rect width="122" height="118" x="276" y="133" fill="#FF3385" rx="20"/><path fill="#F7F7F7" fill-opacity=".2" d="M371 218v-53c0-5-3-8-8-8h-53c-5 0-8 3-8 8v53c0 5 3 8 8 8h53c5 0 8-3 8-8zm-48-21l10 12 13-17 17 23h-53l13-18z"/><rect width="122" height="118" x="276" y="133" fill="#FF3385" rx="20"/><path fill="#F7F7F7" fill-opacity=".2" d="M371 218v-53c0-5-3-8-8-8h-53c-5 0-8 3-8 8v53c0 5 3 8 8 8h53c5 0 8-3 8-8zm-48-21l10 12 13-17 17 23h-53l13-18z"/><rect width="122" height="119" y="265" fill="#FF3385" rx="20"/><path fill="#F7F7F7" fill-opacity=".2" d="M96 351v-53c0-5-3-8-8-8H35c-5 0-8 3-8 8v53c0 5 3 8 8 8h53c5 0 8-3 8-8zm-48-21l10 12 13-17 17 23H35l13-18z"/><rect width="122" height="119" y="265" fill="#FF3385" rx="20"/><path fill="#F7F7F7" fill-opacity=".2" d="M96 351v-53c0-5-3-8-8-8H35c-5 0-8 3-8 8v53c0 5 3 8 8 8h53c5 0 8-3 8-8zm-48-21l10 12 13-17 17 23H35l13-18z"/><rect width="122" height="119" x="138" y="265" fill="#FF3385" rx="20"/><path fill="#F7F7F7" fill-opacity=".2" d="M234 351v-53c0-5-3-8-8-8h-53c-5 0-8 3-8 8v53c0 5 3 8 8 8h53c5 0 8-3 8-8zm-48-21l10 12 13-17 17 23h-53l13-18z"/><rect width="122" height="119" x="138" y="265" fill="#FF3385" rx="20"/><path fill="#F7F7F7" fill-opacity=".2" d="M234 351v-53c0-5-3-8-8-8h-53c-5 0-8 3-8 8v53c0 5 3 8 8 8h53c5 0 8-3 8-8zm-48-21l10 12 13-17 17 23h-53l13-18z"/><rect width="122" height="119" x="276" y="265" fill="#FF3385" rx="20"/><path fill="#F7F7F7" fill-opacity=".2" d="M371 351v-53c0-5-3-8-8-8h-53c-5 0-8 3-8 8v53c0 5 3 8 8 8h53c5 0 8-3 8-8zm-48-21l10 12 13-17 17 23h-53l13-18z"/><rect width="122" height="119" x="276" y="265" fill="#FF3385" rx="20"/><path fill="#F7F7F7" fill-opacity=".2" d="M371 351v-53c0-5-3-8-8-8h-53c-5 0-8 3-8 8v53c0 5 3 8 8 8h53c5 0 8-3 8-8zm-48-21l10 12 13-17 17 23h-53l13-18z"/><rect width="122" height="119" x="416" fill="#FF3385" rx="20"/><path fill="#F7F7F7" fill-opacity=".2" d="M512 85V32c0-5-3-8-8-8h-53c-5 0-8 3-8 8v53c0 5 3 8 8 8h53c5 0 8-3 8-8zm-48-21l10 12 13-17 17 23h-53l13-18z"/><rect width="122" height="119" x="416" fill="#FF3385" rx="20"/><path fill="#F7F7F7" fill-opacity=".2" d="M512 85V32c0-5-3-8-8-8h-53c-5 0-8 3-8 8v53c0 5 3 8 8 8h53c5 0 8-3 8-8zm-48-21l10 12 13-17 17 23h-53l13-18z"/><rect width="122" height="118" x="416" y="133" fill="#FF3385" rx="20"/><path fill="#F7F7F7" fill-opacity=".2" d="M512 218v-53c0-5-3-8-8-8h-53c-5 0-8 3-8 8v53c0 5 3 8 8 8h53c5 0 8-3 8-8zm-48-21l10 12 13-17 17 23h-53l13-18z"/><rect width="122" height="118" x="416" y="133" fill="#FF3385" rx="20"/><path fill="#F7F7F7" fill-opacity=".2" d="M512 218v-53c0-5-3-8-8-8h-53c-5 0-8 3-8 8v53c0 5 3 8 8 8h53c5 0 8-3 8-8zm-48-21l10 12 13-17 17 23h-53l13-18z"/><rect width="122" height="119" x="416" y="265" fill="#FF3385" rx="20"/><path fill="#F7F7F7" fill-opacity=".2" d="M512 351v-53c0-5-3-8-8-8h-53c-5 0-8 3-8 8v53c0 5 3 8 8 8h53c5 0 8-3 8-8zm-48-21l10 12 13-17 17 23h-53l13-18z"/><rect width="122" height="119" x="416" y="265" fill="#FF3385" rx="20"/><path fill="#F7F7F7" fill-opacity=".2" d="M512 351v-53c0-5-3-8-8-8h-53c-5 0-8 3-8 8v53c0 5 3 8 8 8h53c5 0 8-3 8-8zm-48-21l10 12 13-17 17 23h-53l13-18z"/><path fill="#FFF" d="M477 0h61v384h-61z"/></svg>

<?xml version="1.0" encoding="UTF-8" standalone="no"?>
<!DOCTYPE svg PUBLIC "-//W3C//DTD SVG 1.1//EN" "http://www.w3.org/Graphics/SVG/1.1/DTD/svg11.dtd">
<svg width="100%" height="100%" viewBox="0 0 538 384" version="1.1" xmlns="http://www.w3.org/2000/svg" xmlns:xlink="http://www.w3.org/1999/xlink" xml:space="preserve" xmlns:serif="http://www.serif.com/" style="fill-rule:evenodd;clip-rule:evenodd;stroke-linejoin:round;stroke-miterlimit:2;">
    <path d="M122,20C122,8.962 113.038,0 102,0L20,0C8.962,0 0,8.962 0,20L0,99C0,110.038 8.962,119 20,119L102,119C113.038,119 122,110.038 122,99L122,20Z" style="fill:rgb(255,165,0);"/>
    <path d="M96,85L96,32C96,27 93,24 88,24L35,24C30,24 27,27 27,32L27,85C27,90 30,93 35,93L88,93C93,93 96,90 96,85ZM48,64L58,76L71,59L88,82L35,82L48,64Z" style="fill:rgb(247,247,247);fill-opacity:0.2;fill-rule:nonzero;"/>
    <path d="M122,20C122,8.962 113.038,0 102,0L20,0C8.962,0 0,8.962 0,20L0,99C0,110.038 8.962,119 20,119L102,119C113.038,119 122,110.038 122,99L122,20Z" style="fill:rgb(255,165,0);"/>
    <path d="M96,85L96,32C96,27 93,24 88,24L35,24C30,24 27,27 27,32L27,85C27,90 30,93 35,93L88,93C93,93 96,90 96,85ZM48,64L58,76L71,59L88,82L35,82L48,64Z" style="fill:rgb(247,247,247);fill-opacity:0.2;fill-rule:nonzero;"/>
    <path d="M260,20C260,8.962 251.038,0 240,0L158,0C146.962,0 138,8.962 138,20L138,99C138,110.038 146.962,119 158,119L240,119C251.038,119 260,110.038 260,99L260,20Z" style="fill:rgb(255,165,0);"/>
    <path d="M234,85L234,32C234,27 231,24 226,24L173,24C168,24 165,27 165,32L165,85C165,90 168,93 173,93L226,93C231,93 234,90 234,85ZM186,64L196,76L209,59L226,82L173,82L186,64Z" style="fill:rgb(247,247,247);fill-opacity:0.2;fill-rule:nonzero;"/>
    <path d="M260,20C260,8.962 251.038,0 240,0L158,0C146.962,0 138,8.962 138,20L138,99C138,110.038 146.962,119 158,119L240,119C251.038,119 260,110.038 260,99L260,20Z" style="fill:rgb(255,165,0);"/>
    <path d="M234,85L234,32C234,27 231,24 226,24L173,24C168,24 165,27 165,32L165,85C165,90 168,93 173,93L226,93C231,93 234,90 234,85ZM186,64L196,76L209,59L226,82L173,82L186,64Z" style="fill:rgb(247,247,247);fill-opacity:0.2;fill-rule:nonzero;"/>
    <path d="M398,20C398,8.962 389.038,0 378,0L296,0C284.962,0 276,8.962 276,20L276,99C276,110.038 284.962,119 296,119L378,119C389.038,119 398,110.038 398,99L398,20Z" style="fill:rgb(255,165,0);"/>
    <path d="M371,85L371,32C371,27 368,24 363,24L310,24C305,24 302,27 302,32L302,85C302,90 305,93 310,93L363,93C368,93 371,90 371,85ZM323,64L333,76L346,59L363,82L310,82L323,64Z" style="fill:rgb(247,247,247);fill-opacity:0.2;fill-rule:nonzero;"/>
    <path d="M398,20C398,8.962 389.038,0 378,0L296,0C284.962,0 276,8.962 276,20L276,99C276,110.038 284.962,119 296,119L378,119C389.038,119 398,110.038 398,99L398,20Z" style="fill:rgb(255,165,0);"/>
    <path d="M371,85L371,32C371,27 368,24 363,24L310,24C305,24 302,27 302,32L302,85C302,90 305,93 310,93L363,93C368,93 371,90 371,85ZM323,64L333,76L346,59L363,82L310,82L323,64Z" style="fill:rgb(247,247,247);fill-opacity:0.2;fill-rule:nonzero;"/>
    <path d="M122,153C122,141.962 113.038,133 102,133L20,133C8.962,133 0,141.962 0,153L0,231C0,242.038 8.962,251 20,251L102,251C113.038,251 122,242.038 122,231L122,153Z" style="fill:rgb(255,165,0);"/>
    <path d="M96,218L96,165C96,160 93,157 88,157L35,157C30,157 27,160 27,165L27,218C27,223 30,226 35,226L88,226C93,226 96,223 96,218ZM48,197L58,209L71,192L88,215L35,215L48,197Z" style="fill:rgb(247,247,247);fill-opacity:0.2;fill-rule:nonzero;"/>
    <path d="M122,153C122,141.962 113.038,133 102,133L20,133C8.962,133 0,141.962 0,153L0,231C0,242.038 8.962,251 20,251L102,251C113.038,251 122,242.038 122,231L122,153Z" style="fill:rgb(255,165,0);"/>
    <path d="M96,218L96,165C96,160 93,157 88,157L35,157C30,157 27,160 27,165L27,218C27,223 30,226 35,226L88,226C93,226 96,223 96,218ZM48,197L58,209L71,192L88,215L35,215L48,197Z" style="fill:rgb(247,247,247);fill-opacity:0.2;fill-rule:nonzero;"/>
    <path d="M260,153C260,141.962 251.038,133 240,133L158,133C146.962,133 138,141.962 138,153L138,231C138,242.038 146.962,251 158,251L240,251C251.038,251 260,242.038 260,231L260,153Z" style="fill:rgb(255,165,0);"/>
    <path d="M234,218L234,165C234,160 231,157 226,157L173,157C168,157 165,160 165,165L165,218C165,223 168,226 173,226L226,226C231,226 234,223 234,218ZM186,197L196,209L209,192L226,215L173,215L186,197Z" style="fill:rgb(247,247,247);fill-opacity:0.2;fill-rule:nonzero;"/>
    <path d="M260,153C260,141.962 251.038,133 240,133L158,133C146.962,133 138,141.962 138,153L138,231C138,242.038 146.962,251 158,251L240,251C251.038,251 260,242.038 260,231L260,153Z" style="fill:rgb(255,165,0);"/>
    <path d="M234,218L234,165C234,160 231,157 226,157L173,157C168,157 165,160 165,165L165,218C165,223 168,226 173,226L226,226C231,226 234,223 234,218ZM186,197L196,209L209,192L226,215L173,215L186,197Z" style="fill:rgb(247,247,247);fill-opacity:0.2;fill-rule:nonzero;"/>
    <path d="M398,153C398,141.962 389.038,133 378,133L296,133C284.962,133 276,141.962 276,153L276,231C276,242.038 284.962,251 296,251L378,251C389.038,251 398,242.038 398,231L398,153Z" style="fill:rgb(255,165,0);"/>
    <path d="M371,218L371,165C371,160 368,157 363,157L310,157C305,157 302,160 302,165L302,218C302,223 305,226 310,226L363,226C368,226 371,223 371,218ZM323,197L333,209L346,192L363,215L310,215L323,197Z" style="fill:rgb(247,247,247);fill-opacity:0.2;fill-rule:nonzero;"/>
    <path d="M398,153C398,141.962 389.038,133 378,133L296,133C284.962,133 276,141.962 276,153L276,231C276,242.038 284.962,251 296,251L378,251C389.038,251 398,242.038 398,231L398,153Z" style="fill:rgb(255,165,0);"/>
    <path d="M371,218L371,165C371,160 368,157 363,157L310,157C305,157 302,160 302,165L302,218C302,223 305,226 310,226L363,226C368,226 371,223 371,218ZM323,197L333,209L346,192L363,215L310,215L323,197Z" style="fill:rgb(247,247,247);fill-opacity:0.2;fill-rule:nonzero;"/>
    <path d="M122,285C122,273.962 113.038,265 102,265L20,265C8.962,265 0,273.962 0,285L0,364C0,375.038 8.962,384 20,384L102,384C113.038,384 122,375.038 122,364L122,285Z" style="fill:rgb(255,165,0);"/>
    <path d="M96,351L96,298C96,293 93,290 88,290L35,290C30,290 27,293 27,298L27,351C27,356 30,359 35,359L88,359C93,359 96,356 96,351ZM48,330L58,342L71,325L88,348L35,348L48,330Z" style="fill:rgb(247,247,247);fill-opacity:0.2;fill-rule:nonzero;"/>
    <path d="M122,285C122,273.962 113.038,265 102,265L20,265C8.962,265 0,273.962 0,285L0,364C0,375.038 8.962,384 20,384L102,384C113.038,384 122,375.038 122,364L122,285Z" style="fill:rgb(255,165,0);"/>
    <path d="M96,351L96,298C96,293 93,290 88,290L35,290C30,290 27,293 27,298L27,351C27,356 30,359 35,359L88,359C93,359 96,356 96,351ZM48,330L58,342L71,325L88,348L35,348L48,330Z" style="fill:rgb(247,247,247);fill-opacity:0.2;fill-rule:nonzero;"/>
    <path d="M260,285C260,273.962 251.038,265 240,265L158,265C146.962,265 138,273.962 138,285L138,364C138,375.038 146.962,384 158,384L240,384C251.038,384 260,375.038 260,364L260,285Z" style="fill:rgb(255,165,0);"/>
    <path d="M234,351L234,298C234,293 231,290 226,290L173,290C168,290 165,293 165,298L165,351C165,356 168,359 173,359L226,359C231,359 234,356 234,351ZM186,330L196,342L209,325L226,348L173,348L186,330Z" style="fill:rgb(247,247,247);fill-opacity:0.2;fill-rule:nonzero;"/>
    <path d="M260,285C260,273.962 251.038,265 240,265L158,265C146.962,265 138,273.962 138,285L138,364C138,375.038 146.962,384 158,384L240,384C251.038,384 260,375.038 260,364L260,285Z" style="fill:rgb(255,165,0);"/>
    <path d="M234,351L234,298C234,293 231,290 226,290L173,290C168,290 165,293 165,298L165,351C165,356 168,359 173,359L226,359C231,359 234,356 234,351ZM186,330L196,342L209,325L226,348L173,348L186,330Z" style="fill:rgb(247,247,247);fill-opacity:0.2;fill-rule:nonzero;"/>
    <path d="M398,285C398,273.962 389.038,265 378,265L296,265C284.962,265 276,273.962 276,285L276,364C276,375.038 284.962,384 296,384L378,384C389.038,384 398,375.038 398,364L398,285Z" style="fill:rgb(255,165,0);"/>
    <path d="M371,351L371,298C371,293 368,290 363,290L310,290C305,290 302,293 302,298L302,351C302,356 305,359 310,359L363,359C368,359 371,356 371,351ZM323,330L333,342L346,325L363,348L310,348L323,330Z" style="fill:rgb(247,247,247);fill-opacity:0.2;fill-rule:nonzero;"/>
    <path d="M398,285C398,273.962 389.038,265 378,265L296,265C284.962,265 276,273.962 276,285L276,364C276,375.038 284.962,384 296,384L378,384C389.038,384 398,375.038 398,364L398,285Z" style="fill:rgb(255,165,0);"/>
    <path d="M371,351L371,298C371,293 368,290 363,290L310,290C305,290 302,293 302,298L302,351C302,356 305,359 310,359L363,359C368,359 371,356 371,351ZM323,330L333,342L346,325L363,348L310,348L323,330Z" style="fill:rgb(247,247,247);fill-opacity:0.2;fill-rule:nonzero;"/>
    <path d="M538,20C538,8.962 529.038,0 518,0L436,0C424.962,0 416,8.962 416,20L416,99C416,110.038 424.962,119 436,119L518,119C529.038,119 538,110.038 538,99L538,20Z" style="fill:rgb(255,165,0);"/>
    <path d="M512,85L512,32C512,27 509,24 504,24L451,24C446,24 443,27 443,32L443,85C443,90 446,93 451,93L504,93C509,93 512,90 512,85ZM464,64L474,76L487,59L504,82L451,82L464,64Z" style="fill:rgb(247,247,247);fill-opacity:0.2;fill-rule:nonzero;"/>
    <path d="M538,20C538,8.962 529.038,0 518,0L436,0C424.962,0 416,8.962 416,20L416,99C416,110.038 424.962,119 436,119L518,119C529.038,119 538,110.038 538,99L538,20Z" style="fill:rgb(255,165,0);"/>
    <path d="M512,85L512,32C512,27 509,24 504,24L451,24C446,24 443,27 443,32L443,85C443,90 446,93 451,93L504,93C509,93 512,90 512,85ZM464,64L474,76L487,59L504,82L451,82L464,64Z" style="fill:rgb(247,247,247);fill-opacity:0.2;fill-rule:nonzero;"/>
    <path d="M538,153C538,141.962 529.038,133 518,133L436,133C424.962,133 416,141.962 416,153L416,231C416,242.038 424.962,251 436,251L518,251C529.038,251 538,242.038 538,231L538,153Z" style="fill:rgb(255,165,0);"/>
    <path d="M512,218L512,165C512,160 509,157 504,157L451,157C446,157 443,160 443,165L443,218C443,223 446,226 451,226L504,226C509,226 512,223 512,218ZM464,197L474,209L487,192L504,215L451,215L464,197Z" style="fill:rgb(247,247,247);fill-opacity:0.2;fill-rule:nonzero;"/>
    <path d="M538,153C538,141.962 529.038,133 518,133L436,133C424.962,133 416,141.962 416,153L416,231C416,242.038 424.962,251 436,251L518,251C529.038,251 538,242.038 538,231L538,153Z" style="fill:rgb(255,165,0);"/>
    <path d="M512,218L512,165C512,160 509,157 504,157L451,157C446,157 443,160 443,165L443,218C443,223 446,226 451,226L504,226C509,226 512,223 512,218ZM464,197L474,209L487,192L504,215L451,215L464,197Z" style="fill:rgb(247,247,247);fill-opacity:0.2;fill-rule:nonzero;"/>
    <path d="M538,285C538,273.962 529.038,265 518,265L436,265C424.962,265 416,273.962 416,285L416,364C416,375.038 424.962,384 436,384L518,384C529.038,384 538,375.038 538,364L538,285Z" style="fill:rgb(255,165,0);"/>
    <path d="M512,351L512,298C512,293 509,290 504,290L451,290C446,290 443,293 443,298L443,351C443,356 446,359 451,359L504,359C509,359 512,356 512,351ZM464,330L474,342L487,325L504,348L451,348L464,330Z" style="fill:rgb(247,247,247);fill-opacity:0.2;fill-rule:nonzero;"/>
    <path d="M538,285C538,273.962 529.038,265 518,265L436,265C424.962,265 416,273.962 416,285L416,364C416,375.038 424.962,384 436,384L518,384C529.038,384 538,375.038 538,364L538,285Z" style="fill:rgb(255,165,0);"/>
    <path d="M512,351L512,298C512,293 509,290 504,290L451,290C446,290 443,293 443,298L443,351C443,356 446,359 451,359L504,359C509,359 512,356 512,351ZM464,330L474,342L487,325L504,348L451,348L464,330Z" style="fill:rgb(247,247,247);fill-opacity:0.2;fill-rule:nonzero;"/>
    <rect x="477" y="0" width="61" height="384" style="fill:white;fill-rule:nonzero;"/>
</svg>
